data/playwrite-au-tas.svg

<svg width="134.06" height="27.048" viewBox="0 0 134.06 27.048" xmlns="http://www.w3.org/2000/svg"><path transform="translate(0 19.992) scale(.014 -.014)" d="m107-14q-48 0-39 30l309 954q5 14 17 21t34 7h176q100 0 166.5-24t100-71.5 33.5-120.5q0-84-31.5-148t-90-109-140-73.5-181.5-41.5q-43-5-90-7.5t-90-3.5l-125-385q-5-14-15.5-21t-33.5-7zm199 493q27 0 58 1.5t62 4.5 59 6q106 17 179 53t111.5 92.5 38.5 134.5q0 52-23.5 84.5t-72.5 47.5-128 15h-142z"/><path transform="translate(10.878 19.992) scale(.014 -.014)" d="m129-15q-58 0-74.5 44.5t10.5 127.5l271 826q7 20 16.5 26t28.5 6q31 0 39.5-9.5t1.5-29.5l-285-868q-7-23-4-35.5t17-12.5q11 0 21 6.5t21 18.5 23 28q8 10 16.5 12t21.5-7q16-10 18.5-20t-3.5-21q-17-29-39-50t-46.5-31.5-53.5-10.5z"/><path transform="translate(15.064 19.992) scale(.014 -.014)" d="m159-17q-37 0-64.5 18.5t-42.5 53-15 80.5 13.5 98 41 102.5 67 92 91.5 66.5 117 25q30 0 62-8.5t61-23.5l1 4q6 16 15.5 20t27.5 4q31 0 39.5-9.5t1.5-29.5l-123-369q-5-16-6-26.5t3-15.5 13-5q11 0 22 7t22.5 19 23.5 27q8 10 16.5 12t21.5-7q16-10 18.5-20t-2.5-21q-9-15-28.5-37.5t-47.5-38.5-63-16-53 14-23.5 35.5-2.5 46.5 9 48q1 2 1.5 4.5t1.5 5.5q-40-54-78.5-89t-74-51-66.5-16zm-31 167q0-27 7-46.5t20.5-30 31.5-10.5q34 0 76 32.5t87 95 92 151.5l25 76q-31 13-58 17.5t-51 4.5q-45 0-82-19.5t-64.5-52-46-71.5-28-77.5-9.5-69.5z"/><path transform="translate(23.772 19.992) scale(.014 -.014)" d="m161-15q-49 0-76.5 23t-31 67.5 16.5 106.5l100 301q7 20 16.5 26t28.5 6q31 0 39.5-9.5t1.5-29.5l-104-311q-10-29-11.5-52t10.5-36 41-13q32 0 69.5 25t76.5 70.5 76.5 107 69.5 135.5l26 81q7 20 16.5 26t28.5 6q31 0 39.5-9.5t1.5-29.5l-245-751q-30-91-63-144.5t-79-76.5-115-23q-37 0-69.5 9.5t-58 26-44.5 35.5q-14 15-18 28.5t17 29.5q18 14 29 14.5t25-14.5q23-25 54.5-38t69.5-13q44 0 73.5 16.5t51.5 53.5 42 99l139 431q-28-42-58-74.5t-61-54.5-62.5-33.5-62.5-11.5z"/><path transform="translate(32.564 19.992) scale(.014 -.014)" d="m146-15q-21 0-29 8.5t-9 29.5l-12 453q0 14 8 26.5t36 12.5q22 0 31.5-8.5t9.5-31.5l3-354 240 363q12 18 25 24.5t32 6.5q17 0 29.5-10t13.5-36l11-346 231 365q11 17 22.5 22t25.5 5q28 0 38-14t-2-33l-297-457q-7-11-22-18.5t-37-7.5-30.5 8.5-8.5 29.5l-11 355-243-367q-7-10-20-18t-35-8z"/><path transform="translate(43.82 19.992) scale(.014 -.014)" d="m56-15q-16 0-30 7t-7 26l150 465q7 20 16.5 26t28.5 6q31 0 39.5-9.5t1.5-29.5l-43-133q29 42 58.5 75t58 55.5 55.5 34 49 11.5q27 0 47-11.5t32-27.5q9-10 8-21.5t-12-24.5-21-18-19 4q-12 8-24.5 13.5t-24.5 5.5q-26 0-61.5-24t-75-68.5-77.5-105.5-70-134l-31-96q-4-13-14.5-19.5t-33.5-6.5z"/><path transform="translate(50.176 19.992) scale(.014 -.014)" d="m127-15q-59 0-75.5 44.5t10.5 127.5l107 326q7 20 16.5 26t28.5 6q31 0 39.5-9.5t1.5-29.5l-120-368q-8-23-5-35.5t17-12.5q11 0 21 6.5t21 18.5 24 28q8 10 16.5 12t21.5-7q16-10 18.5-20t-3.5-21q-18-29-39.5-50t-46.5-31.5-53-10.5zm149 684q-20 0-34 13t-14 38q0 27 17.5 51t54.5 24q21 0 35-12.5t14-38.5q0-27-17.5-51t-55.5-24z"/><path transform="translate(54.376 19.992) scale(.014 -.014)" d="m158-15q-44 0-67 20.5t-25 59 15 91.5l86 264h-77q-11 0-15 10t1 30q6 20 16 30t21 10h80l65 198q6 20 15.5 26t29.5 6q31 0 39.5-9.5t1.5-29.5l-63-191h126q11 0 15.5-9.5t-1.5-30.5q-5-19-15-29.5t-21-10.5h-130l-97-294q-11-34-6-50t24-16q24 0 50 18.5t51 50.5q8 9 17.5 11t24.5-8q15-9 17-18.5t-3-18.5q-11-20-35.5-46t-59-45-80.5-19z"/><path transform="translate(59.808 19.992) scale(.014 -.014)" d="m225-19q-59 0-98 25t-58.5 67.5-19.5 94.5q0 58 21 120t61 114 98.5 84.5 135.5 32.5q47 0 79-14.5t48.5-40.5 16.5-63q0-41-24.5-74t-65.5-59.5-94.5-45-112-30.5-117.5-18l12 71q39 4 82 12t84 20 74 29 52 38 19 47-16.5 37.5-46.5 11.5q-51 0-91.5-25.5t-68-66-42-87-14.5-88.5q0-34 11-59.5t33-39 54-13.5 58 12.5 49 33 46 44.5q13 14 28 10.5t25-14.5q11-11 13-23.5t-11-27.5q-36-43-73-68.5t-73.5-36-73.5-10.5z"/><path transform="translate(71.372 19.992) scale(.014 -.014)" d="m-15-14q-26 0-34 15.5t7 37.5l620 936q14 23 29 31.5t39 8.5q19 0 30.5-9.5t12.5-41.5l44-933q2-20-9.5-32.5t-37.5-12.5q-22 0-29 8.5t-9 28.5l-12 262h-416l-170-259q-18-26-28.5-33t-36.5-7zm290 379h358l-24 509z"/><path transform="translate(83.034 19.992) scale(.014 -.014)" d="m336-19q-66 0-111 24t-68.5 70.5-22.5 112 27 148.5l208 652q5 14 16.5 20.5t35.5 6.5q23 0 34-7t6-23l-214-660q-21-66-24-114.5t10-80.5 41.5-48 69.5-16q43 0 88.5 15.5t92 46 94.5 77 96.5 108 96.5 138.5l172 537q5 14 17.5 20.5t34.5 6.5 32.5-8 5.5-22l-312-971q-4-14-17-21t-35-7-32 8.5-6 21.5l73 226q-48-63-97.5-112t-101-82-104-50-106.5-17z"/><path transform="translate(100.98 19.992) scale(.014 -.014)" d="m298-15q-42 0-35 28l295 905h-294q-15 0-18.5 9t3.5 31q8 23 17 31.5t24 8.5h673q15 0 18.5-8.5t-4.5-31.5q-7-22-16-31t-24-9h-292l-295-905q-4-14-17-21t-35-7z"/><path transform="translate(111.71 19.992) scale(.014 -.014)" d="m-15-14q-26 0-34 15.5t7 37.5l620 936q14 23 29 31.5t39 8.5q19 0 30.5-9.5t12.5-41.5l44-933q2-20-9.5-32.5t-37.5-12.5q-22 0-29 8.5t-9 28.5l-12 262h-416l-170-259q-18-26-28.5-33t-36.5-7zm290 379h358l-24 509z"/><path transform="translate(123.37 19.992) scale(.014 -.014)" d="m343-20q-52 0-96.5 12.5t-81 34-65.5 48-51 54.5q-9 12-3.5 22.5t15.5 20.5q14 11 25 14t20-8q26-29 61-54.5t79.5-42 97.5-16.5q55 0 102.5 14t83 40.5 55 66 19.5 90.5q0 33-10.5 60t-30 50-48.5 43.5-67 41.5q-35 19-66 40t-56.5 45-44 52.5-29 63.5-10.5 78q0 58 22.5 106.5t64.5 84 100.5 55 131.5 19.5q57 0 104.5-16.5t86.5-43.5 70-58q11-10 8.5-21.5t-16.5-23.5q-11-11-22.5-13t-22.5 6q-26 22-55.5 41.5t-66.5 31.5-87 12q-48 0-89.5-11.5t-71.5-34-47-56-17-77.5q0-36 8.5-63.5t28-50.5 50.5-45 75-46q48-25 85-52.5t62.5-60 38.5-71 13-84.5q0-67-26-121t-74-94-112.5-61.5-140.5-21.5z"/></svg>

<?xml version="1.0" encoding="utf-8" ?>
<svg baseProfile="tiny" height="100%" version="1.2" width="100%" xmlns="http://www.w3.org/2000/svg" xmlns:ev="http://www.w3.org/2001/xml-events" xmlns:xlink="http://www.w3.org/1999/xlink"><defs /><g><path d="M107 -14Q59 -14 68 16L377 970Q382 984 394.0 991.0Q406 998 428 998H604Q704 998 770.5 974.0Q837 950 870.5 902.5Q904 855 904 782Q904 698 872.5 634.0Q841 570 782.5 525.0Q724 480 642.5 451.5Q561 423 461 410Q418 405 371.0 402.5Q324 400 281 399L156 14Q151 0 140.5 -7.0Q130 -14 107 -14ZM306 479Q333 479 364.0 480.5Q395 482 426.0 485.0Q457 488 485 491Q591 508 664.0 544.0Q737 580 775.5 636.5Q814 693 814 771Q814 823 790.5 855.5Q767 888 718.0 903.0Q669 918 590 918H448Z" transform="translate(0.0, 72) scale(0.072, -0.072)" /><path d="M129 -15Q71 -15 54.5 29.5Q38 74 65 157L336 983Q343 1003 352.5 1009.0Q362 1015 381 1015Q412 1015 420.5 1005.5Q429 996 422 976L137 108Q130 85 133.0 72.5Q136 60 150 60Q161 60 171.0 66.5Q181 73 192.0 85.0Q203 97 215 113Q223 123 231.5 125.0Q240 127 253 118Q269 108 271.5 98.0Q274 88 268 77Q251 48 229.0 27.0Q207 6 182.5 -4.5Q158 -15 129 -15Z" transform="translate(55.943999999999996, 72) scale(0.072, -0.072)" /><path d="M159 -17Q122 -17 94.5 1.5Q67 20 52.0 54.5Q37 89 37 135Q37 181 50.5 233.0Q64 285 91.5 335.5Q119 386 158.5 427.5Q198 469 250.0 494.0Q302 519 367 519Q397 519 429.0 510.5Q461 502 490 487L491 491Q497 507 506.5 511.0Q516 515 534 515Q565 515 573.5 505.5Q582 496 575 476L452 107Q447 91 446.0 80.5Q445 70 449.0 65.0Q453 60 462 60Q473 60 484.0 67.0Q495 74 506.5 86.0Q518 98 530 113Q538 123 546.5 125.0Q555 127 568 118Q584 108 586.5 98.0Q589 88 584 77Q575 62 555.5 39.5Q536 17 508.0 1.0Q480 -15 445 -15Q410 -15 392.0 -1.0Q374 13 368.5 34.5Q363 56 366.0 81.0Q369 106 375 129Q376 131 376.5 133.5Q377 136 378 139Q338 85 299.5 50.0Q261 15 225.5 -1.0Q190 -17 159 -17ZM128 150Q128 123 135.0 103.5Q142 84 155.5 73.5Q169 63 187 63Q221 63 263.0 95.5Q305 128 350.0 190.5Q395 253 442 342L467 418Q436 431 409.0 435.5Q382 440 358 440Q313 440 276.0 420.5Q239 401 211.5 368.5Q184 336 165.5 297.0Q147 258 137.5 219.5Q128 181 128 150Z" transform="translate(77.472, 72) scale(0.072, -0.072)" /><path d="M161 -15Q112 -15 84.5 8.0Q57 31 53.5 75.5Q50 120 70 182L170 483Q177 503 186.5 509.0Q196 515 215 515Q246 515 254.5 505.5Q263 496 256 476L152 165Q142 136 140.5 113.0Q139 90 151.0 77.0Q163 64 192 64Q224 64 261.5 89.0Q299 114 338.0 159.5Q377 205 414.5 266.5Q452 328 484 402L510 483Q517 503 526.5 509.0Q536 515 555 515Q586 515 594.5 505.5Q603 496 596 476L351 -275Q321 -366 288.0 -419.5Q255 -473 209.0 -496.0Q163 -519 94 -519Q57 -519 24.5 -509.5Q-8 -500 -33.5 -483.5Q-59 -467 -78 -448Q-92 -433 -96.0 -419.5Q-100 -406 -79 -390Q-61 -376 -50.0 -375.5Q-39 -375 -25 -390Q-2 -415 29.5 -428.0Q61 -441 99 -441Q143 -441 172.5 -424.5Q202 -408 224.0 -371.0Q246 -334 266 -272L405 159Q377 117 347.0 84.5Q317 52 286.0 30.0Q255 8 223.5 -3.5Q192 -15 161 -15Z" transform="translate(122.256, 72) scale(0.072, -0.072)" /><path d="M146 -15Q125 -15 117.0 -6.5Q109 2 108 23L96 476Q96 490 104.0 502.5Q112 515 140 515Q162 515 171.5 506.5Q181 498 181 475L184 121L424 484Q436 502 449.0 508.5Q462 515 481 515Q498 515 510.5 505.0Q523 495 524 469L535 123L766 488Q777 505 788.5 510.0Q800 515 814 515Q842 515 852.0 501.0Q862 487 850 468L553 11Q546 0 531.0 -7.5Q516 -15 494 -15Q472 -15 463.5 -6.5Q455 2 455 23L444 378L201 11Q194 1 181.0 -7.0Q168 -15 146 -15Z" transform="translate(167.47199999999998, 72) scale(0.072, -0.072)" /><path d="M56 -15Q40 -15 26.0 -8.0Q12 -1 19 18L169 483Q176 503 185.5 509.0Q195 515 214 515Q245 515 253.5 505.5Q262 496 255 476L212 343Q241 385 270.5 418.0Q300 451 328.5 473.5Q357 496 384.0 507.5Q411 519 433 519Q460 519 480.0 507.5Q500 496 512 480Q521 470 520.0 458.5Q519 447 508 434Q497 421 487.0 416.0Q477 411 468 420Q456 428 443.5 433.5Q431 439 419 439Q393 439 357.5 415.0Q322 391 282.5 346.5Q243 302 205.0 241.0Q167 180 135 107L104 11Q100 -2 89.5 -8.5Q79 -15 56 -15Z" transform="translate(225.35999999999999, 72) scale(0.072, -0.072)" /><path d="M127 -15Q68 -15 51.5 29.5Q35 74 62 157L169 483Q176 503 185.5 509.0Q195 515 214 515Q245 515 253.5 505.5Q262 496 255 476L135 108Q127 85 130.0 72.5Q133 60 147 60Q158 60 168.0 66.5Q178 73 189.0 85.0Q200 97 213 113Q221 123 229.5 125.0Q238 127 251 118Q267 108 269.5 98.0Q272 88 266 77Q248 48 226.5 27.0Q205 6 180.0 -4.5Q155 -15 127 -15ZM276 669Q256 669 242.0 682.0Q228 695 228 720Q228 747 245.5 771.0Q263 795 300 795Q321 795 335.0 782.5Q349 770 349 744Q349 717 331.5 693.0Q314 669 276 669Z" transform="translate(258.048, 72) scale(0.072, -0.072)" /><path d="M158 -15Q114 -15 91.0 5.5Q68 26 66.0 64.5Q64 103 81 156L167 420H90Q79 420 75.0 430.0Q71 440 76 460Q82 480 92.0 490.0Q102 500 113 500H193L258 698Q264 718 273.5 724.0Q283 730 303 730Q334 730 342.5 720.5Q351 711 344 691L281 500H407Q418 500 422.5 490.5Q427 481 421 460Q416 441 406.0 430.5Q396 420 385 420H255L158 126Q147 92 152.0 76.0Q157 60 176 60Q200 60 226.0 78.5Q252 97 277 129Q285 138 294.5 140.0Q304 142 319 132Q334 123 336.0 113.5Q338 104 333 95Q322 75 297.5 49.0Q273 23 238.5 4.0Q204 -15 158 -15Z" transform="translate(279.648, 72) scale(0.072, -0.072)" /><path d="M225 -19Q166 -19 127.0 6.0Q88 31 68.5 73.5Q49 116 49 168Q49 226 70.0 288.0Q91 350 131.0 402.0Q171 454 229.5 486.5Q288 519 365 519Q412 519 444.0 504.5Q476 490 492.5 464.0Q509 438 509 401Q509 360 484.5 327.0Q460 294 419.0 267.5Q378 241 324.5 222.5Q271 204 212.5 192.0Q154 180 95 174L107 245Q146 249 189.0 257.0Q232 265 273.0 277.0Q314 289 347.0 306.0Q380 323 399.0 344.0Q418 365 418 391Q418 417 401.5 428.5Q385 440 355 440Q304 440 263.5 414.5Q223 389 195.5 348.5Q168 308 153.5 261.5Q139 215 139 173Q139 139 150.0 113.5Q161 88 183.0 74.5Q205 61 237 61Q269 61 295.0 73.5Q321 86 344.0 106.5Q367 127 390 151Q403 165 418.0 161.5Q433 158 443 147Q454 136 456.0 123.5Q458 111 445 96Q409 53 372.0 27.5Q335 2 298.5 -8.5Q262 -19 225 -19Z" transform="translate(307.584, 72) scale(0.072, -0.072)" /><path d="M-15 -14Q-41 -14 -49.0 1.5Q-57 17 -42 39L578 975Q592 998 607.0 1006.5Q622 1015 646 1015Q665 1015 676.5 1005.5Q688 996 689 964L733 31Q735 11 723.5 -1.5Q712 -14 686 -14Q664 -14 657.0 -5.5Q650 3 648 23L636 285H220L50 26Q32 0 21.5 -7.0Q11 -14 -15 -14ZM275 365H633L609 874Z" transform="translate(367.05600000000004, 72) scale(0.072, -0.072)" /><path d="M336 -19Q270 -19 225.0 5.0Q180 29 156.5 75.5Q133 122 134.0 187.5Q135 253 161 336L369 988Q374 1002 385.5 1008.5Q397 1015 421 1015Q444 1015 455.0 1008.0Q466 1001 461 985L247 325Q226 259 223.0 210.5Q220 162 233.0 130.0Q246 98 274.5 82.0Q303 66 344 66Q387 66 432.5 81.5Q478 97 524.5 127.5Q571 158 619.0 204.5Q667 251 715.5 312.5Q764 374 812 451L984 988Q989 1002 1001.5 1008.5Q1014 1015 1036 1015Q1058 1015 1068.5 1007.0Q1079 999 1074 985L762 14Q758 0 745.0 -7.0Q732 -14 710 -14Q688 -14 678.0 -5.5Q668 3 672 16L745 242Q697 179 647.5 130.0Q598 81 546.5 48.0Q495 15 442.5 -2.0Q390 -19 336 -19Z" transform="translate(427.03200000000004, 72) scale(0.072, -0.072)" /><path d="M298 -15Q256 -15 263 13L558 918H264Q249 918 245.5 927.0Q242 936 249 958Q257 981 266.0 989.5Q275 998 290 998H963Q978 998 981.5 989.5Q985 981 977 958Q970 936 961.0 927.0Q952 918 937 918H645L350 13Q346 -1 333.0 -8.0Q320 -15 298 -15Z" transform="translate(519.336, 72) scale(0.072, -0.072)" /><path d="M-15 -14Q-41 -14 -49.0 1.5Q-57 17 -42 39L578 975Q592 998 607.0 1006.5Q622 1015 646 1015Q665 1015 676.5 1005.5Q688 996 689 964L733 31Q735 11 723.5 -1.5Q712 -14 686 -14Q664 -14 657.0 -5.5Q650 3 648 23L636 285H220L50 26Q32 0 21.5 -7.0Q11 -14 -15 -14ZM275 365H633L609 874Z" transform="translate(574.488, 72) scale(0.072, -0.072)" /><path d="M343 -20Q291 -20 246.5 -7.5Q202 5 165.5 26.5Q129 48 100.0 74.5Q71 101 49 129Q40 141 45.5 151.5Q51 162 61 172Q75 183 86.0 186.0Q97 189 106 178Q132 149 167.0 123.5Q202 98 246.5 81.5Q291 65 344 65Q399 65 446.5 79.0Q494 93 529.5 119.5Q565 146 584.5 185.5Q604 225 604 276Q604 309 593.5 336.0Q583 363 563.5 386.0Q544 409 515.0 429.5Q486 450 448 471Q413 490 382.0 511.0Q351 532 325.5 556.0Q300 580 281.5 608.5Q263 637 252.5 672.0Q242 707 242 750Q242 808 264.5 856.5Q287 905 329.0 940.5Q371 976 429.5 995.5Q488 1015 561 1015Q618 1015 665.5 998.5Q713 982 752.0 955.0Q791 928 822 897Q833 887 830.5 875.5Q828 864 814 852Q803 841 791.5 839.0Q780 837 769 845Q743 867 713.5 886.5Q684 906 647.0 918.0Q610 930 560 930Q512 930 470.5 918.5Q429 907 399.0 884.5Q369 862 352.0 828.5Q335 795 335 751Q335 715 343.5 687.5Q352 660 371.5 637.0Q391 614 422.0 592.0Q453 570 497 546Q545 521 582.0 493.5Q619 466 644.5 433.5Q670 401 683.0 362.5Q696 324 696 278Q696 211 670.0 157.0Q644 103 596.0 63.0Q548 23 483.5 1.5Q419 -20 343 -20Z" transform="translate(634.464, 72) scale(0.072, -0.072)" /></g></svg>
